X:1
T:Jenny Nettle's Fancy -- Reel
R:reel
B:Ryan's Mammoth Collection
N: 379
Z: Contributed by Ray Davies,  ray:davies99.freeserve.co.uk
M:C|
L:1/8
K:D
vBAAB dAFA | BAAB defd | BAAB dAFA | defd e2d2 |
BAAB dAFA | BAAB defd | BAAB dAFA | defd e2d2 |]
dfaf bfaf | dfaf g2fe | dfaf bfaf | defd e2d2 |
dfaf bfaf | bfaf e2de | afef dBAB | fafd e2d2 |]
